images/icon-thought.svg

<?xml version="1.0" encoding="UTF-8"?>
<svg preserveAspectRatio="none" width="300px" height="300px" viewBox="0 0 302 302" version="1.1" xmlns="http://www.w3.org/2000/svg" xmlns:xlink="http://www.w3.org/1999/xlink">
    <defs></defs>
    <g id="Page-1" stroke="none" stroke-width="1" fill="none" fill-rule="evenodd">
        <g id="icon-thought">
            <g id="Group" transform="translate(0.000000, 262.934363)">
                <path d="M28.662182,19.068166 C28.662182,12.6113468 23.4375797,7.35733478 17.0147623,7.35733478 C10.5919448,7.35733478 5.36734256,12.610864 5.36734256,19.068166 C5.36734256,25.5254679 10.5919448,30.7789971 17.0147623,30.7789971 C23.4375797,30.7789971 28.662182,25.5249851 28.662182,19.068166 Z" id="Path" fill="#000000"></path>
                <path d="M36.4864865,18.4539504 C36.4864865,28.5136631 28.302956,36.6971936 18.2432432,36.6971936 C8.1835305,36.6971936 0,28.5136631 0,18.4539504 C0,8.39423766 8.1835305,0.210707157 18.2432432,0.210707157 C28.302956,0.210707157 36.4864865,8.39423766 36.4864865,18.4539504 Z" id="Path" fill="#000000"></path>
                <path d="M27.8490347,18.5328185 C27.8490347,13.0950321 24.1618962,8.68725869 18.4677092,8.68725869 C12.7735223,8.68725869 8.15791506,13.0950321 8.15791506,18.5328185 C8.15791506,23.9706049 12.7735223,28.3783784 18.4677092,28.3783784 C24.1618962,28.3783784 27.8490347,23.9706049 27.8490347,18.5328185 Z" id="Path" fill="#FCFCFC"></path>
            </g>
            <path d="M295.318147,92.0785714 C295.318147,140.346718 256.189575,179.47529 207.921429,179.47529 C201.219498,179.47529 194.693629,178.71834 188.424324,177.289575 C183.454633,210.328378 154.948263,235.658687 120.52471,235.658687 C82.6001931,235.658687 51.8559846,204.914479 51.8559846,166.989961 C51.8559846,163.99112 52.0494208,161.036873 52.4223938,158.139961 C26.146332,144.707143 8.15791506,117.372394 8.15791506,85.8359073 C8.15791506,41.015444 44.4920849,4.68185328 89.3119691,4.68185328 C112.048263,4.68185328 132.597104,14.0357143 147.330116,29.1005792 C163.040734,13.9812741 184.394595,4.68185328 207.920849,4.68185328 C256.188996,4.68185328 295.318147,43.8110039 295.318147,92.0785714 Z" id="Shape" fill="#FCFCFC" fill-rule="nonzero"></path>
            <path d="M110.894595,107.107529 L110.894595,107.107529 C104.14112,113.861004 93.1916988,113.861004 86.4376448,107.107529 L55.8666023,76.5364865 C49.1131274,69.7830116 49.1131274,58.8335907 55.8666023,52.0795367 L55.8666023,52.0795367 C62.6200772,45.3260618 73.5694981,45.3260618 80.3235521,52.0795367 L110.894595,82.6505792 C117.64749,89.4040541 117.64749,100.354054 110.894595,107.107529 Z" id="Shape" fill="#75BD59" fill-rule="nonzero"></path>
            <path d="M110.894595,52.0795367 L110.894595,52.0795367 C117.648069,58.8330116 117.648069,69.7824324 110.894595,76.5364865 L80.3235521,107.107529 C73.5700772,113.861004 62.6206564,113.861004 55.8666023,107.107529 L55.8666023,107.107529 C49.1131274,100.354054 49.1131274,89.4046332 55.8666023,82.6505792 L86.4376448,52.0795367 C93.1911197,45.3266409 104.14112,45.3266409 110.894595,52.0795367 Z" id="Shape" fill="#75BD59" fill-rule="nonzero"></path>
            <polygon id="Shape" fill="#F7B239" fill-rule="nonzero" points="83.380888 55.1368726 107.837838 79.5938224 83.380888 104.050772 58.9239382 79.5938224"></polygon>
            <path d="M255.407722,70.0106178 L255.407722,112.271815 C255.407722,115.990541 253.027992,119.291699 249.500386,120.467954 L203.572587,135.77722 L157.644788,120.467954 C154.117181,119.291699 151.737452,115.990541 151.737452,112.271815 L151.737452,70.0106178 C151.737452,64.1137066 157.514479,59.9501931 163.108494,61.8144788 L203.572587,75.3023166 L244.03668,61.8144788 C249.630695,59.9507722 255.407722,64.1142857 255.407722,70.0106178 Z" id="Shape" fill="#D9554C" fill-rule="nonzero"></path>
            <path d="M255.407722,70.0111969 L255.407722,112.272394 C255.407722,115.99112 253.027992,119.292278 249.500386,120.468533 L203.572587,135.77722 L203.572587,75.3028958 L244.03668,61.8150579 C249.630695,59.9507722 255.407722,64.1142857 255.407722,70.0111969 Z" id="Shape" fill="#D9554C" fill-rule="nonzero"></path>
            <path d="M90.3000031,79.9499969 C90.3000031,83.6777771 87.2777832,86.6999969 83.5500031,86.6999969 C79.8222229,86.6999969 76.8000031,83.6777771 76.8000031,79.9499969 C76.8000031,76.2222168 79.8222229,73.1999969 83.5500031,73.1999969 C87.2777832,73.1999969 90.3000031,76.2217993 90.3000031,79.9499969 Z" id="Shape" fill="#000000" fill-rule="nonzero"></path>
            <path d="M58.2081081,238.652317 C58.2081081,230.907915 51.907529,224.606178 44.1619691,224.606178 C36.4164093,224.606178 30.1158301,230.907336 30.1158301,238.652317 C30.1158301,246.397297 36.4164093,252.698456 44.1619691,252.698456 C51.907529,252.698456 58.2081081,246.396718 58.2081081,238.652317 Z" id="Path" stroke="#FCFCFC" fill="#FCFCFC"></path>
            <path d="M67.669112,238.749614 C67.669112,251.658301 57.1679537,262.159459 44.2592664,262.159459 C31.3505792,262.159459 20.8494208,251.658301 20.8494208,238.749614 C20.8494208,225.840927 31.3505792,215.339768 44.2592664,215.339768 C57.1679537,215.339768 67.669112,225.840927 67.669112,238.749614 Z M58.2081081,238.652317 C58.2081081,230.907915 51.907529,224.606178 44.1619691,224.606178 C36.4164093,224.606178 30.1158301,230.907336 30.1158301,238.652317 C30.1158301,246.397297 36.4164093,252.698456 44.1619691,252.698456 C51.907529,252.698456 58.2081081,246.396718 58.2081081,238.652317 Z M151.737452,137.338031 L133.55444,137.338031 C127.476834,137.338031 122.101158,141.211969 120.178958,146.977992 L105.743629,190.283977 C105.097876,192.221236 103.292664,193.522008 101.252317,193.522008 C99.484749,193.522008 97.8776062,192.549614 97.0581081,190.98417 L80.9739382,160.278185 C79.7739382,157.987645 76.9442085,157.103861 74.653668,158.303861 C72.3631274,159.503861 71.4787645,162.333012 72.6787645,164.624131 L88.7629344,195.330116 C91.2052124,199.99112 95.9907336,202.886293 101.251737,202.886293 C107.329344,202.886293 112.705019,199.012355 114.62722,193.246332 L129.062548,149.940347 C129.708301,148.003089 131.513514,146.702317 133.553861,146.702317 L151.737452,146.702317 C154.323359,146.702317 156.419305,144.60695 156.419305,142.020463 C156.419305,139.433398 154.323359,137.338031 151.737452,137.338031 Z M260.089575,70.0106178 L260.089575,112.271815 C260.089575,118.014672 256.428764,123.093243 250.980695,124.909459 L205.052317,140.218147 C205.044208,140.220463 205.0361,140.221042 205.028571,140.223938 C204.818919,140.292857 204.603475,140.343243 204.385135,140.382046 C204.36139,140.38668 204.338224,140.395367 204.3139,140.398842 C204.070656,140.438224 203.82278,140.459653 203.572008,140.459653 C203.417375,140.459653 203.261004,140.437645 203.105792,140.422008 C203.01834,140.41332 202.930309,140.414479 202.844015,140.400579 C202.76583,140.387838 202.688803,140.361776 202.611197,140.34556 C202.444981,140.310811 202.279344,140.276641 202.117181,140.224517 C202.108494,140.222201 202.099807,140.221042 202.091699,140.218147 L156.1639,124.909459 C150.715251,123.093822 147.05444,118.015251 147.05444,112.272394 L147.05444,70.0111969 C147.05444,65.6774131 149.071042,61.73861 152.586486,59.203668 C156.10251,56.6698842 160.476834,56.0032819 164.588224,57.372973 L203.571429,70.3673745 L242.554633,57.372973 C246.665444,56.0032819 251.040347,56.669305 254.556371,59.203668 C258.072973,61.7380309 260.089575,65.676834 260.089575,70.0106178 Z M198.890734,78.6776062 L161.628185,66.2565637 C160.407336,65.8494208 159.107143,66.0469112 158.062934,66.8003861 C157.018726,67.5532819 156.419884,68.723166 156.419884,70.0111969 L156.419884,112.272394 C156.419884,113.977992 157.507529,115.48668 159.125676,116.026448 L198.891313,129.281467 L198.891313,78.6776062 L198.890734,78.6776062 Z M250.725869,70.0106178 C250.725869,68.7225869 250.127027,67.5527027 249.082239,66.7998069 C248.038031,66.046332 246.737259,65.8488417 245.517568,66.2559846 L245.517568,66.2559846 L208.255019,78.6764479 L208.255019,129.280888 L248.020656,116.025869 C249.638803,115.48668 250.726448,113.977413 250.726448,112.271815 L250.726448,70.0106178 L250.725869,70.0106178 L250.725869,70.0106178 Z M300,92.0785714 C300,142.850965 258.693822,184.157143 207.921429,184.157143 C202.619305,184.157143 197.347876,183.691506 192.1639,182.793243 C184.822587,216.287838 155.092471,240.34112 120.52471,240.34112 C80.0785714,240.34112 47.1735521,207.4361 47.1735521,166.989961 C47.1735521,164.660039 47.1903475,163.373745 47.407529,161.073938 C47.4428571,160.694595 44.3166023,158.95251 43.5399614,158.463127 C18.4528958,142.621622 3.47490347,115.471042 3.47490347,85.8364865 C3.47490347,38.5065637 41.980888,0 89.31139,0 C111.280309,0 131.872587,8.28764479 147.45,22.6436293 C164.218726,8.00617761 185.486873,0 207.920849,0 C258.693822,0 300,41.3061776 300,92.0785714 Z M290.636293,92.0785714 C290.636293,46.469305 253.530695,9.36370656 207.921429,9.36370656 C187.941892,9.36370656 168.990927,16.4328185 153.988031,29.3669884 C158.405212,34.4374517 162.274517,40.0737452 165.475483,46.2156371 C166.670849,48.5090734 165.780695,51.3364865 163.487259,52.5312741 C161.193822,53.7260618 158.366409,52.8359073 157.171622,50.5436293 C154.197683,44.8378378 150.421042,39.7563707 146.425483,34.9610039 C144.050965,32.1098456 141.517761,29.9252896 141.192857,29.6247104 C127.303668,16.7832046 108.925483,9.36370656 89.3108108,9.36370656 C47.1434363,9.36370656 12.83861,43.669112 12.83861,85.8359073 C12.83861,112.238224 26.184556,136.429344 48.5397683,150.544981 C48.6891892,150.638803 48.8287645,150.740734 48.9637066,150.848456 C50.8633205,142.391699 54.2530888,134.316602 59.03861,126.976448 C60.4511583,124.810425 63.3527027,124.201158 65.5175676,125.611969 C67.6835907,127.023938 68.2951737,129.924903 66.8826255,132.090927 C60.1135135,142.471622 56.5366795,154.539382 56.5366795,166.989961 C56.5366795,202.272973 85.2411197,230.976834 120.523552,230.976834 C150.699614,230.976834 176.640347,209.968147 183.021429,180.725097 C175.645946,178.658687 168.532819,175.686486 161.87722,171.836293 C161.789189,171.785328 156.730888,169.576448 156.730888,166.989961 C156.730888,164.403475 158.827413,162.308108 161.412741,162.308108 L162.037066,162.308108 C163.019305,162.308108 165.968919,163.385328 166.566023,163.729923 C179.076834,170.967568 193.377799,174.792857 207.92027,174.792857 C253.530695,174.794015 290.636293,137.688417 290.636293,92.0785714 Z M83.380888,110.659459 C79.1287645,114.778958 73.6140927,116.844788 68.0959459,116.844788 C62.4683398,116.844788 56.8413127,114.70251 52.5567568,110.418533 C44.0710425,101.932819 43.9945946,88.180888 52.3158301,79.5938224 C43.9945946,71.0061776 44.0710425,57.2548263 52.5567568,48.769112 C61.042471,40.2839768 74.7938224,40.207529 83.380888,48.5281853 C91.9685328,40.207529 105.719305,40.2839768 114.205019,48.769112 C122.690734,57.2548263 122.767181,71.0067568 114.445946,79.5938224 C122.767181,88.1814672 122.690734,101.932819 114.205019,110.418533 C109.920463,114.701931 104.293436,116.844788 98.6658301,116.844788 C93.1471042,116.844788 87.6324324,114.778958 83.380888,110.659459 Z M107.824517,86.2274131 L90.0156371,104.036873 C94.9511583,108.700193 102.752317,108.628378 107.58417,103.795946 C112.414865,98.965251 112.487259,91.1629344 107.824517,86.2274131 Z M90.0144788,55.1490347 L107.823359,72.9584942 C112.487259,68.0235521 112.414865,60.2212355 107.583012,55.3899614 C102.752317,50.5592664 94.95,50.4868726 90.0144788,55.1490347 Z M83.380888,61.7583012 L65.5459459,79.5932432 L83.380888,97.4281853 L101.21583,79.5932432 L83.380888,61.7583012 Z M58.9366795,72.9596525 L76.7455598,55.1501931 C74.3218147,52.8602317 71.2111969,51.7030888 68.0947876,51.7030888 C64.8648649,51.7030888 61.6361004,52.9320463 59.177027,55.3911197 C54.346332,60.2218147 54.2739382,68.0241313 58.9366795,72.9596525 Z M76.7467181,104.038031 L58.9378378,86.2285714 C54.2739382,91.1635135 54.346332,98.9658301 59.1781853,103.797104 C64.0088803,108.627799 71.8111969,108.700193 76.7467181,104.038031 Z" id="Shape" fill="#000000" fill-rule="nonzero"></path>
        </g>
    </g>
</svg>

<svg preserveAspectRatio="none" width="300" height="300" viewBox="0 0 302 302" xmlns="http://www.w3.org/2000/svg"><g fill="none" fill-rule="evenodd"><path d="M28.662 282.003c0-6.457-5.224-11.711-11.647-11.711s-11.648 5.253-11.648 11.71c0 6.458 5.225 11.711 11.648 11.711s11.647-5.254 11.647-11.71z" fill="#000"/><path d="M36.486 281.388c0 10.06-8.183 18.244-18.243 18.244C8.183 299.632 0 291.448 0 281.388s8.184-18.243 18.243-18.243c10.06 0 18.243 8.184 18.243 18.243z" fill="#000"/><path d="M27.849 281.467c0-5.438-3.687-9.845-9.381-9.845-5.694 0-10.31 4.407-10.31 9.845 0 5.438 4.616 9.846 10.31 9.846 5.694 0 9.381-4.408 9.381-9.846z" fill="#FCFCFC"/><path d="M295.318 92.079c0 48.268-39.128 87.396-87.397 87.396a87.663 87.663 0 0 1-19.497-2.185c-4.97 33.038-33.476 58.369-67.9 58.369-37.924 0-68.668-30.745-68.668-68.669 0-2.999.193-5.953.566-8.85-26.276-13.433-44.264-40.768-44.264-72.304 0-44.82 36.334-81.154 81.154-81.154 22.736 0 43.285 9.354 58.018 24.419 15.71-15.12 37.065-24.42 60.59-24.42 48.269 0 87.398 39.13 87.398 87.398z" fill="#FCFCFC" fill-rule="nonzero"/><path d="M110.895 107.108c-6.754 6.753-17.703 6.753-24.457 0L55.867 76.536c-6.754-6.753-6.754-17.702 0-24.456 6.753-6.754 17.702-6.754 24.457 0l30.57 30.57c6.753 6.754 6.753 17.704 0 24.458z" fill="#75BD59" fill-rule="nonzero"/><path d="M110.895 52.08c6.753 6.753 6.753 17.702 0 24.456l-30.571 30.572c-6.754 6.753-17.703 6.753-24.457 0-6.754-6.754-6.754-17.703 0-24.457l30.57-30.571c6.754-6.753 17.704-6.753 24.458 0z" fill="#75BD59" fill-rule="nonzero"/><path fill="#F7B239" fill-rule="nonzero" d="M83.38 55.137l24.458 24.457L83.38 104.05 58.924 79.594z"/><path d="M255.408 70.01v42.262a8.64 8.64 0 0 1-5.908 8.196l-45.927 15.31-45.928-15.31a8.64 8.64 0 0 1-5.908-8.196V70.01c0-5.897 5.777-10.06 11.371-8.197l40.465 13.488 40.464-13.488c5.594-1.863 11.37 2.3 11.37 8.197z" fill="#D9554C" fill-rule="nonzero"/><path d="M255.408 70.011v42.261a8.64 8.64 0 0 1-5.908 8.197l-45.927 15.308V75.303l40.464-13.488c5.594-1.864 11.37 2.3 11.37 8.196z" fill="#D9554C" fill-rule="nonzero"/><path d="M90.3 79.95a6.75 6.75 0 1 1-13.5 0 6.75 6.75 0 0 1 13.5 0z" fill="#000" fill-rule="nonzero"/><path d="M58.208 238.652c0-7.744-6.3-14.046-14.046-14.046-7.746 0-14.046 6.301-14.046 14.046 0 7.745 6.3 14.046 14.046 14.046 7.746 0 14.046-6.301 14.046-14.046z" stroke="#FCFCFC" fill="#FCFCFC"/><path d="M67.67 238.75c0 12.908-10.502 23.41-23.41 23.41-12.91 0-23.41-10.502-23.41-23.41 0-12.91 10.5-23.41 23.41-23.41 12.908 0 23.41 10.5 23.41 23.41zm-9.462-.098c0-7.744-6.3-14.046-14.046-14.046-7.746 0-14.046 6.301-14.046 14.046 0 7.745 6.3 14.046 14.046 14.046 7.746 0 14.046-6.301 14.046-14.046zm93.53-101.314h-18.184a14.082 14.082 0 0 0-13.375 9.64l-14.435 43.306a4.729 4.729 0 0 1-4.492 3.238 4.72 4.72 0 0 1-4.194-2.538l-16.084-30.706a4.682 4.682 0 0 0-8.295 4.346l16.084 30.706a14.06 14.06 0 0 0 12.489 7.556 14.082 14.082 0 0 0 13.375-9.64l14.436-43.306a4.729 4.729 0 0 1 4.49-3.238h18.184a4.681 4.681 0 0 0 4.682-4.682 4.681 4.681 0 0 0-4.682-4.682zM260.09 70.011v42.26c0 5.744-3.661 10.822-9.11 12.638l-45.928 15.31a4.678 4.678 0 0 1-.667.164c-.024.004-.047.012-.071.016a4.64 4.64 0 0 1-.742.06c-.155 0-.311-.021-.466-.037-.088-.009-.176-.008-.262-.021-.078-.013-.155-.04-.233-.055-.166-.035-.332-.07-.494-.121l-.025-.007-45.928-15.309a13.303 13.303 0 0 1-9.11-12.637v-42.26c0-4.335 2.017-8.273 5.532-10.808 3.517-2.534 7.89-3.2 12.002-1.831l38.983 12.994 38.984-12.994c4.11-1.37 8.485-.704 12.001 1.83 3.517 2.535 5.534 6.474 5.534 10.808zm-61.2 8.667l-37.262-12.421a3.913 3.913 0 0 0-3.565.543 3.916 3.916 0 0 0-1.643 3.211v42.261a3.953 3.953 0 0 0 2.706 3.754l39.765 13.255V78.678zm51.836-8.667a3.915 3.915 0 0 0-1.644-3.211 3.913 3.913 0 0 0-3.564-.544l-37.263 12.42v50.605l39.766-13.255a3.952 3.952 0 0 0 2.705-3.754V70.01zM300 92.079c0 50.772-41.306 92.078-92.079 92.078a92.299 92.299 0 0 1-15.757-1.364c-7.341 33.495-37.072 57.548-71.64 57.548-40.445 0-73.35-32.905-73.35-73.351 0-2.33.016-3.616.234-5.916.035-.38-3.091-2.121-3.868-2.61C18.453 142.621 3.475 115.47 3.475 85.835 3.475 38.506 41.98 0 89.31 0c21.97 0 42.562 8.288 58.139 22.644C164.219 8.006 185.487 0 207.92 0 258.695 0 300 41.306 300 92.079zm-9.364 0c0-45.61-37.105-82.715-82.715-82.715-19.98 0-38.93 7.069-53.933 20.003a86.475 86.475 0 0 1 11.487 16.849 4.682 4.682 0 0 1-8.304 4.328c-2.973-5.706-6.75-10.788-10.746-15.583-2.374-2.851-4.907-5.036-5.232-5.336-13.89-12.842-32.268-20.261-51.882-20.261-42.168 0-76.472 34.305-76.472 76.472 0 26.402 13.346 50.593 35.7 64.709.15.094.29.196.425.303a72.934 72.934 0 0 1 10.075-23.872 4.683 4.683 0 0 1 7.844 5.115c-6.77 10.38-10.346 22.448-10.346 34.899 0 35.283 28.704 63.987 63.987 63.987 30.176 0 56.116-21.009 62.497-50.252a91.535 91.535 0 0 1-21.144-8.889c-.088-.05-5.146-2.26-5.146-4.846a4.682 4.682 0 0 1 4.682-4.682h.624c.982 0 3.932 1.077 4.529 1.422 12.51 7.238 26.812 11.063 41.354 11.063 45.61.001 82.716-37.105 82.716-82.714zm-207.255 18.58a21.907 21.907 0 0 1-15.285 6.186c-5.628 0-11.255-2.142-15.54-6.426-8.485-8.486-8.561-22.238-.24-30.825-8.321-8.588-8.245-22.34.24-30.825 8.486-8.485 22.238-8.561 30.825-.24 8.588-8.321 22.338-8.245 30.824.24 8.486 8.486 8.562 22.238.24 30.825 8.322 8.587 8.246 22.339-.24 30.825-4.285 4.283-9.912 6.426-15.54 6.426a21.905 21.905 0 0 1-15.284-6.186zm24.444-24.432l-17.81 17.81c4.936 4.663 12.737 4.591 17.57-.241 4.83-4.83 4.902-12.633.24-17.569zM90.015 55.15l17.808 17.81c4.664-4.935 4.592-12.738-.24-17.569-4.83-4.83-12.633-4.903-17.569-.241zm-6.634 6.61L65.546 79.592 83.38 97.428l17.835-17.835L83.38 61.758zm-24.444 11.2L76.746 55.15a12.57 12.57 0 0 0-8.651-3.447 12.57 12.57 0 0 0-8.918 3.688c-4.83 4.83-4.903 12.633-.24 17.569zm17.81 31.079l-17.81-17.81c-4.663 4.936-4.59 12.738.241 17.57 4.83 4.83 12.633 4.902 17.569.24z" fill="#000" fill-rule="nonzero"/></g></svg>
